X:1
T:Hear Dem Bells
T:Hear Dem Bells
T:Anon.
C:Anon.
%%score [ 1 2 3 4 ]
L:1/8
M:4/4
K:G
V:1 treble nm="Soprano"
V:2 treble nm="Alto"
V:3 treble-8 nm="Tenor"
V:4 bass nm="Bass"
V:1
 B2 B2 B4- | B2 z2 B3 A | G2 D2 G4- | G2 z2 F2 G2 | A2 A2 A3 A | A2 c2 B3 A | ((B2 d2)) d3 d | %7
w: Hear dem bells,|_ Don't you|hear dem bells!|_ They are|ring- in' out the|glor- y of the|Lamb. _ Hal- le-|
 e2 d2 d3 c | B2 B2 B4- | B2 z2 B3 A | G2 D2 G4- | G2 z2 F2 G2 | A2 A2 A3 A | A2 c2 B3 A | G8- | %15
w: lu- jah! Don't you|hear dem bells,|_ Don't you|hear dem bells?|_ They are|ring- in' out the|glor- y of the|Lamb.|
 G2 z2 z4 |] %16
w: _|
V:2
 D2 D2 D4- | D2 z2 D3 C | B,2 B,2 B,4- | B,2 z2 ^A,2 B,2 | C2 C2 C3 C | C2 E2 D3 C | (D2 G2) G3 G | %7
w: Hear dem bells,|_ Don't you|hear dem bells!|_ They are|ring- in' out the|glor- y of the|Lamb. _ Hal- le-|
 G2 F2 F3 F | G2 D2 D4- | D2 z2 D3 C | B,2 B,2 B,4- | B,2 z2 ^A,2 B,2 | C2 C2 C3 C | C2 E2 D3 C | %14
w: lu- jah! Don't you|hear dem bells,|_ Don't you|hear dem bells?|_ They are|ring- in' out the|glor- y of the|
 B,8- | B,2 z2 z4 |] %16
w: Lamb.|_|
V:3
 G2 G2 G2 D2 | d2 z2 F3 F | D2 D2 D2 D2 | d2 z2 D2 D2 | F2 F2 F3 F | F2 F2 F3 F | (G2 B2) B3 B | %7
w: Hear dem bells, them|bells! Don't you|hear dem bells, dem|bells! They are|ring- in' out the|glor- y of the|Lamb. _ Hal- le-|
 c2 B2 B3 A | G2 G2 G2 D2 | d2 z2 F3 F | D2 D2 D2 D2 | d2 z2 D2 D2 | F2 F2 F3 F | F2 F2 F3 F | %14
w: lu- jah! Don't you|Hear dem bells, dem|bells! Don't you|hear dem bells, dem|bells? They are|ring- in' out the|glor- y of the|
 D8- | D2 z2 z4 |] %16
w: Lamb.|_|
V:4
 G,,2 G,,2 G,,4- | G,,2 z2 D,3 D, | G,,2 G,,2 G,,4- | G,,2 z2 G,,2 G,,2 | D,2 D,2 D,3 D, | %5
w: Hear dem bells,|_ Don't you|hear dem bells!|_ They are|ring- in' out the|
 D,2 D,2 D,3 D, | G,,4 G,3 G, | G,2 G,2 D,3 D, | G,,2 G,,2 G,,4- | G,,2 z2 D,3 D, | %10
w: glor- y of the|Lamb. Hal- le-|lu- jah! Don't you|hear dem bells,|_ Don't you|
 G,,2 G,,2 G,,4- | G,,2 z2 G,,2 G,,2 | D,2 D,2 D,3 D, | D,2 D,2 D,3 D, | G,,8- | G,,2 z2 z4 |] %16
w: hear dem bells?|_ They are|ring- in' out the|glor- y of the|Lamb.|_|

